X:37
T:Elmennék nálatok
O:Szögliget (Abaúj), Magyar Ferenc (75), 1952.07
Q: "Rubato" 1/4=60
M:2/4
L:1/4
K:C
F/E/D | F/E/D | 
F/G/ (A{/G}) | A/G/F |
F/G/ (A{/d}) | d/d/c |
A/<F/A/<G/ | D D | 

